X:1
T:Attwood, 88.88.88.8
T:Attwood, 88.88.88.8
T:Thomas Atwood, 1831
T:Public Domain Courtesy of the Cyber Hymnal™
C:Thomas Atwood, 1831
Z:Public Domain
Z:Courtesy of the Cyber Hymnal™
%%score ( 1 2 ) ( 3 4 )
L:1/8
Q:1/4=115
M:3/4
K:Eb
V:1 treble 
V:2 treble 
V:3 bass 
V:4 bass 
V:1
 [EB]2 | B2 e2 (dc) | [EB]4 [DG]2 | E4 [DF]2 | [EG]4 [EG]2 | [DF]2 [FB]2 [Fc]2 | [Fd]2 [Ff]4 | %7
 ([DB][=Ec]) [Fd]2 (dc) | [DB]4 [DB]2 | (B2 G2) [EA]2 | F4 [DF]2 | (B2 G2) [Ec]2 | [DF]6 | %13
 [CF]2 [FA]2 [=EG]2 | (F2 [CA]2) [B,G]2 | F4 z2 x2 | [EG]2 [DF]4 | [FB]2 [GB]2 [FB]2 | %18
 ([FB]2 [Ee]2) [EG]2 | ([EF]2 [Dc]2) [DB]2 | (A2 G2) [EG]2 | ([EA]2 [_DB]2) [Cc]2 | %22
 ([DB]2 [B,D]2) [B,E]2 | [FA]4 [DF]2 | ([DF]2 [EG]2) [FB]2 | (e2 d2) [Ec]2 | (B2 D2) [CE]2 | %27
 [FA]4 [DF]2 | E6 |] %29
V:2
 x2 | E4 E2 | x6 | E4 x2 | x6 | x6 | x6 | x4 _E2 | x6 | E4 x2 | (E2 D2) x2 | E4 x2 | x6 | x6 | %14
 F2 x4 | =A,2 (E4 F2) | x6 | x6 | x6 | x6 | E4 x2 | x6 | x6 | x6 | x6 | G4 x2 | D4 x2 | x6 | E6 |] %29
V:3
 [E,G,]2 | [E,G,]4 [E,A,]2 | [E,G,]4 [G,B,]2 | [CE]4 B,2 | [E,B,]4 [E,B,]2 | B,4 [F,=A,]2 | %6
 B,2 [D,B,]4 | B,4 [F,=A,]2 | [B,,B,]4 [B,,B,]2 | G,2 [E,B,]2 [C,A,]2 | [B,,B,]4 [A,B,]2 | %11
 ([G,B,]2 C2) [A,C]2 | B,6 | [F,A,]2 [C,C]2 [C,B,]2 | ([_D,A,]2 [A,,F,]2) [C,=E,]2 | F,2 =A,4 x2 | %16
 [B,,B,]6 | [B,,A,]2 [B,,A,]2 [B,,A,]2 | [B,,G,]4 [B,,G,]2 | [B,,A,]4 [B,,F,]2 | [C,E,]4 [_D,B,]2 | %21
 ([C,E,-A,]2 [B,,E,-G,]2) [A,,E,A,]2 | [A,B,]4 [G,B,]2 | [F,C]4 [B,,B,]2 | [E,B,]4 [D,B,]2 | %25
 (G,C) [G,,B,]2 [A,,A,]2 | ([B,,F,]2 [=B,,_B,]2) [C,G,]2 | [A,,C]4 [B,,A,]2 | [E,G,]6 |] %29
V:4
 x2 | x6 | x6 | x4 B,2 | x6 | B,,2 D,2 x2 | B,2 x4 | G,2 F,2 x2 | x6 | G,2 x4 | x6 | x2 C2 x2 | %12
 B,6 | x6 | x6 | (F,2 C,2) F,,2 x2 | x6 | x6 | x6 | x6 | x6 | x6 | x6 | x6 | x6 | C,2 x4 | x6 | %27
 x6 | x6 |] %29

